source/img/icon-gift.svg

<svg fill="none" height="75" viewBox="0 0 64 75" width="64" xmlns="http://www.w3.org/2000/svg"><path d="m61.1556 22.1167h-.1016-24.6857c13.8158-6.7978 14.9333-11.0965 14.4254-13.49572-1.1175-3.89877-5.6889-6.89782-9.9556-5.29832-5.5873 2.09933-7.1111 10.29674-8.6349 16.19484-1.9302-5.9981-3.7588-13.59567-8.127-17.49443-1.2191-1.099656-3.0476-2.199309-5.7905-1.9993718-4.0635.3998738-9.85395 5.2983218-7.4159 10.7966018 2.235 5.2983 9.6508 8.6972 14.6286 11.3964h-22.65396c-1.62539 0-2.84444 1.2996-2.84444 2.7991v11.1965c0 1.5995 1.32063 2.7991 2.84444 2.7991h.30477v35.9886h57.90479v-35.9886h.1016c1.6254 0 2.8444-1.2996 2.8444-2.7991v-11.1965c0-1.5995-1.3206-2.8991-2.8444-2.8991zm-18.6921-16.29483c2.1333-.29991 4.9778 1.29959 5.2825 3.19898.4064 2.69915-3.3523 5.19835-5.0793 6.29805-2.5397 1.6994-4.9778 2.5991-7.3143 3.9987.8127-3.6988 2.5397-12.89592 7.1111-13.49573zm-22.9587 9.79693c-2.235-1.4996-6.5016-4.3986-6.4-7.6976.1015-3.59886 5.7904-6.49794 8.8381-3.7988 3.8603 3.29896 5.6888 10.9965 7.1111 16.3948-3.2508-1.5995-6.2984-2.7991-9.5492-4.8984zm5.9936 56.3821h-19.40316v-32.9895h19.40316zm0-35.9886h-22.45078v-10.8965h22.45078zm10.1587 35.9886h-7.2127v-46.8851h7.2127zm22.3493 0h-19.3016v-32.9895h19.4031v32.9895zm2.946-35.9886h-22.2476v-10.8965h22.2476z" fill="#81b3d2"/></svg>

<svg width="64" height="75" viewBox="0 0 64 75" fill="none" xmlns="http://www.w3.org/2000/svg">
<path d="M61.1556 22.1167H61.054H36.3683C50.1841 15.3189 51.3016 11.0202 50.7937 8.62098C49.6762 4.72221 45.1048 1.72316 40.8381 3.32266C35.2508 5.42199 33.727 13.6194 32.2032 19.5175C30.273 13.5194 28.4444 5.92183 24.0762 2.02307C22.8571 0.923414 21.0286 -0.176239 18.2857 0.0236982C14.2222 0.423572 8.43175 5.32202 10.8698 10.8203C13.1048 16.1186 20.5206 19.5175 25.4984 22.2167H2.84444C1.21905 22.2167 0 23.5163 0 25.0158V36.2123C0 37.8118 1.32063 39.0114 2.84444 39.0114H3.14921V75H61.054V39.0114H61.1556C62.781 39.0114 64 37.7118 64 36.2123V25.0158C64 23.4163 62.6794 22.1167 61.1556 22.1167ZM42.4635 5.82187C44.5968 5.52196 47.4413 7.12146 47.746 9.02085C48.1524 11.72 44.3937 14.2192 42.6667 15.3189C40.127 17.0183 37.6889 17.918 35.3524 19.3176C36.1651 15.6188 37.8921 6.42168 42.4635 5.82187ZM19.5048 15.6188C17.2698 14.1192 13.0032 11.2202 13.1048 7.9212C13.2063 4.32234 18.8952 1.42326 21.9429 4.1224C25.8032 7.42136 27.6317 15.1189 29.054 20.5172C25.8032 18.9177 22.7556 17.7181 19.5048 15.6188ZM25.4984 72.0009H6.09524V39.0114H25.4984V72.0009ZM25.4984 36.0123H3.04762V25.1158H25.4984V36.0123ZM35.6571 72.0009H28.4444V25.1158H35.6571V72.0009ZM58.0064 72.0009H38.7048V39.0114H58.1079V72.0009H58.0064ZM60.9524 36.0123H38.7048V25.1158H60.9524V36.0123Z" fill="#81B3D2"/>
</svg>
